X:983
T:Bacons Hornpipe. JC.111
M:C|
L:1/8
Q:160
S:John Clare,Poet,Helpston. (1793-1864)
R:Hornpipe
O:England
A:Northamptonshire
N:
Z:P Headford
K:D
AG|FAD2D2FD|EDCD EFGA|FABc dfeg|fdec dBAG|!
FAD2D2FD|EDCD EFDF|FABc dBAG|F2D2D2:|!
|:Ac|dAFA dfed|ecAc egfe|fdcd Bged|c2A2A2dc|!
BAGF gagf|edcB ABAG|FABc dBBG|F2D2D2:|]


